X: 1
T: The Bear Dance
R: polka
M: 2/4
L: 1/8
K: Amin
eA A2|eA A>B|cc Bc|d2 d2|
ee dd|cc B2|A/B/c BG|A2 A2:|
|:A/B/c A/B/c|BG G2|A/B/c A/B/c|d2 d2|
ea ea|ea e>d|cA BG|A2 A2:|


Tune 4195	Setting 16956

